packages/foundations/assets/icons/functional/images/technology/power_socket.svg

<svg xmlns="http://www.w3.org/2000/svg" width="32" height="32" fill="none"><path fill="#1A1C1F" fill-rule="evenodd" d="M4.173 2.109c-.95.257-1.753 1.082-2.075 2.131-.093.305-.098.717-.098 8.773v8.454l.128.39a3.2 3.2 0 0 0 1.94 1.992l.332.123 4.373.016c4.81.017 4.639.028 4.958-.306.082-.086.181-.275.218-.42.116-.447-.037-.846-.42-1.095l-.217-.14-4.136-.002c-2.649 0-4.222-.021-4.375-.056a1.01 1.01 0 0 1-.699-.549c-.096-.212-.1-.525-.1-8.433s.004-8.222.1-8.433c.055-.121.19-.289.301-.374l.202-.153 8.244-.016c5.617-.011 8.306.002 8.437.04a.92.92 0 0 1 .582.485c.102.2.105.331.105 4.345 0 2.96.018 4.208.062 4.384.128.508.681.838 1.181.705a1.03 1.03 0 0 0 .685-.562c.098-.221.101-.398.087-4.619L23.973 4.4l-.124-.332c-.327-.875-1.016-1.58-1.851-1.895l-.318-.12-8.613-.01c-7.296-.008-8.656.002-8.894.066m7.587 4.004c-.983.176-2.163.681-2.933 1.255a7.04 7.04 0 0 0-2.482 7.791c.774 2.411 2.858 4.236 5.415 4.741.557.11 2.018.095 2.574-.025 1.469-.319 2.538-.9 3.59-1.951 1.051-1.052 1.632-2.121 1.951-3.59.12-.556.135-2.017.025-2.574-.578-2.929-2.84-5.159-5.734-5.653-.592-.101-1.828-.098-2.406.006m1.929 1.943c2.105.286 3.856 1.972 4.228 4.074.083.465.069 1.415-.028 1.886-.307 1.498-1.425 2.901-2.815 3.531-2.682 1.216-5.841-.143-6.785-2.92-.63-1.851-.17-3.816 1.212-5.174 1.137-1.117 2.614-1.61 4.188-1.397m-3.102 4.042c-.296.141-.456.332-.537.641a1 1 0 0 0 .073.735c.092.171.422.441.585.476.08.018.172.04.205.05a1 1 0 0 0 .293-.034.993.993 0 0 0 .685-1.41c-.221-.457-.847-.677-1.304-.458m4 0a1.3 1.3 0 0 0-.341.239c-.125.137-.286.62-.248.745.011.036.034.131.052.213.054.244.383.561.671.647.83.246 1.549-.604 1.17-1.386-.224-.463-.841-.68-1.304-.458m6.933 4.908c-.462.287-.639.815-.421 1.25.047.094.479.568.96 1.054s.874.906.874.934-.612.662-1.36 1.409l-1.36 1.359-.946-.943c-.818-.816-.977-.951-1.17-.994-.747-.164-1.358.44-1.179 1.165.051.21.178.36.995 1.188l.936.947-.408.413c-.225.226-.434.48-.465.562a1.12 1.12 0 0 0 .052.812c.137.283 2.294 2.422 2.762 2.739.447.302.997.556 1.583.732.427.127.573.144 1.307.148.709.004.886-.012 1.244-.116.795-.229 1.365-.522 1.921-.985l.259-.215.674.669c.372.368.756.709.856.759.378.19.898.072 1.153-.262.124-.162.25-.57.213-.691a4 4 0 0 1-.053-.22c-.024-.109-.267-.393-.76-.891l-.724-.731.215-.282a5.7 5.7 0 0 0 .982-2.018c.17-.63.173-1.803.006-2.409a6 6 0 0 0-.685-1.519c-.277-.426-2.596-2.762-2.876-2.898-.44-.213-.721-.114-1.307.459l-.455.446-.905-.909c-.498-.5-.969-.943-1.049-.985-.207-.11-.674-.098-.869.023m5.956 5.157c.284.54.371.897.371 1.51a3.17 3.17 0 0 1-.419 1.601c-.225.391-1.888 2.047-2.247 2.237-.907.479-1.883.482-2.861.008-.507-.245-.786-.473-1.522-1.242l-.551-.577 2.743-2.746 2.743-2.747.775.793c.592.606.82.879.968 1.163"/></svg>

<svg width="32" height="32" viewBox="0 0 32 32" fill="none" xmlns="http://www.w3.org/2000/svg"><path d="M4.173 2.109 C 3.223 2.366,2.420 3.191,2.098 4.240 C 2.005 4.545,2.000 4.957,2.000 13.013 L 2.000 21.467 2.128 21.857 C 2.427 22.770,3.140 23.502,4.068 23.849 L 4.400 23.972 8.773 23.988 C 13.583 24.005,13.412 24.016,13.731 23.682 C 13.813 23.596,13.912 23.407,13.949 23.262 C 14.065 22.815,13.912 22.416,13.529 22.167 L 13.312 22.027 9.176 22.025 C 6.527 22.025,4.954 22.004,4.801 21.969 C 4.487 21.897,4.225 21.691,4.102 21.420 C 4.006 21.208,4.002 20.895,4.002 12.987 C 4.002 5.079,4.006 4.765,4.102 4.554 C 4.157 4.433,4.292 4.265,4.403 4.180 L 4.605 4.027 12.849 4.011 C 18.466 4.000,21.155 4.013,21.286 4.051 C 21.547 4.126,21.742 4.289,21.868 4.536 C 21.970 4.736,21.973 4.867,21.973 8.881 C 21.973 11.841,21.991 13.089,22.035 13.265 C 22.163 13.773,22.716 14.103,23.216 13.970 C 23.528 13.887,23.781 13.679,23.901 13.408 C 23.999 13.187,24.002 13.010,23.988 8.789 L 23.973 4.400 23.849 4.068 C 23.522 3.193,22.833 2.488,21.998 2.173 L 21.680 2.053 13.067 2.043 C 5.771 2.035,4.411 2.045,4.173 2.109 M11.760 6.113 C 10.777 6.289,9.597 6.794,8.827 7.368 C 6.427 9.156,5.426 12.296,6.345 15.159 C 7.119 17.570,9.203 19.395,11.760 19.900 C 12.317 20.010,13.778 19.995,14.334 19.875 C 15.803 19.556,16.872 18.975,17.924 17.924 C 18.975 16.872,19.556 15.803,19.875 14.334 C 19.995 13.778,20.010 12.317,19.900 11.760 C 19.322 8.831,17.060 6.601,14.166 6.107 C 13.574 6.006,12.338 6.009,11.760 6.113 M13.689 8.056 C 15.794 8.342,17.545 10.028,17.917 12.130 C 18.000 12.595,17.986 13.545,17.889 14.016 C 17.582 15.514,16.464 16.917,15.074 17.547 C 12.392 18.763,9.233 17.404,8.289 14.627 C 7.659 12.776,8.119 10.811,9.501 9.453 C 10.638 8.336,12.115 7.843,13.689 8.056 M10.587 12.098 C 10.291 12.239,10.131 12.430,10.050 12.739 C 9.981 13.006,10.006 13.255,10.123 13.474 C 10.215 13.645,10.545 13.915,10.708 13.950 C 10.788 13.968,10.880 13.990,10.913 14.000 C 10.946 14.010,11.078 13.995,11.206 13.966 C 11.844 13.823,12.175 13.142,11.891 12.556 C 11.670 12.099,11.044 11.879,10.587 12.098 M14.587 12.098 C 14.469 12.153,14.316 12.261,14.246 12.337 C 14.121 12.474,13.960 12.957,13.998 13.082 C 14.009 13.118,14.032 13.213,14.050 13.295 C 14.104 13.539,14.433 13.856,14.721 13.942 C 15.551 14.188,16.270 13.338,15.891 12.556 C 15.667 12.093,15.050 11.876,14.587 12.098 M21.520 17.006 C 21.058 17.293,20.881 17.821,21.099 18.256 C 21.146 18.350,21.578 18.824,22.059 19.310 C 22.540 19.796,22.933 20.216,22.933 20.244 C 22.933 20.272,22.321 20.906,21.573 21.653 L 20.213 23.012 19.267 22.069 C 18.449 21.253,18.290 21.118,18.097 21.075 C 17.350 20.911,16.739 21.515,16.918 22.240 C 16.969 22.450,17.096 22.600,17.913 23.428 L 18.849 24.375 18.441 24.788 C 18.216 25.014,18.007 25.268,17.976 25.350 C 17.889 25.584,17.910 25.919,18.028 26.162 C 18.165 26.445,20.322 28.584,20.790 28.901 C 21.237 29.203,21.787 29.457,22.373 29.633 C 22.800 29.760,22.946 29.777,23.680 29.781 C 24.389 29.785,24.566 29.769,24.924 29.665 C 25.719 29.436,26.289 29.143,26.845 28.680 L 27.104 28.465 27.778 29.134 C 28.150 29.502,28.534 29.843,28.634 29.893 C 29.012 30.083,29.532 29.965,29.787 29.631 C 29.911 29.469,30.037 29.061,30.000 28.940 C 29.990 28.907,29.966 28.808,29.947 28.720 C 29.923 28.611,29.680 28.327,29.187 27.829 L 28.463 27.098 28.678 26.816 C 29.137 26.210,29.456 25.555,29.660 24.798 C 29.830 24.168,29.833 22.995,29.666 22.389 C 29.531 21.900,29.259 21.296,28.981 20.870 C 28.704 20.444,26.385 18.108,26.105 17.972 C 25.665 17.759,25.384 17.858,24.798 18.431 L 24.343 18.877 23.438 17.968 C 22.940 17.468,22.469 17.025,22.389 16.983 C 22.182 16.873,21.715 16.885,21.520 17.006 M27.476 22.163 C 27.760 22.703,27.847 23.060,27.847 23.673 C 27.847 24.252,27.706 24.790,27.428 25.274 C 27.203 25.665,25.540 27.321,25.181 27.511 C 24.274 27.990,23.298 27.993,22.320 27.519 C 21.813 27.274,21.534 27.046,20.798 26.277 L 20.247 25.700 22.990 22.954 L 25.733 20.207 26.508 21.000 C 27.100 21.606,27.328 21.879,27.476 22.163 " fill="#1A1C1F" stroke="none" fill-rule="evenodd"></path></svg>
